src/images/single-assets/WAULTx.svg

<svg width="96" height="96" viewBox="0 0 96 96" fill="none" xmlns="http://www.w3.org/2000/svg">
<g clip-path="url(#clip0)">
<path d="M48.0002 96.0005C74.51 96.0005 96.0005 74.51 96.0005 48.0002C96.0005 21.4904 74.51 0 48.0002 0C21.4904 0 0 21.4904 0 48.0002C0 74.51 21.4904 96.0005 48.0002 96.0005Z" fill="#17252A"/>
<path d="M58.298 75.5622C58.3017 75.6159 58.2949 75.6697 58.2778 75.7207C58.2607 75.7716 58.2338 75.8187 58.1985 75.8593C58.1632 75.8998 58.1203 75.933 58.0722 75.957C58.024 75.981 57.9717 75.9952 57.9181 75.999C57.8644 76.0027 57.8106 75.9958 57.7596 75.9788C57.7087 75.9617 57.6616 75.9347 57.621 75.8995C57.5805 75.8642 57.5472 75.8213 57.5233 75.7731C57.4993 75.725 57.4851 75.6727 57.4813 75.619C57.4801 75.6001 57.4801 75.5812 57.4813 75.5622L35.3022 26.0376H42.896C44.4899 26.0349 46.0499 26.4976 47.3846 27.3689C48.7192 28.2403 49.7704 29.4823 50.4091 30.9427L57.9221 48.0506L64.3323 34.5352C64.994 33.1334 66.0392 31.9478 67.347 31.1157C68.6547 30.2835 70.1715 29.839 71.7215 29.8334H78.825L58.298 75.5622Z" fill="url(#paint0_linear)"/>
<path d="M42.5703 45.6347L41.1407 48.9838L40.7016 47.9617L40.6589 48.0044L32.8524 30.8965C32.164 29.4404 31.0785 28.2084 29.7207 27.3421C28.3629 26.4758 26.788 26.0106 25.1775 26H17.1741L40.2429 75.4815C40.2611 75.5337 40.2894 75.5818 40.3263 75.6231C40.3631 75.6644 40.4077 75.698 40.4575 75.722C40.5073 75.7461 40.5614 75.76 40.6166 75.7632C40.6718 75.7663 40.7271 75.7586 40.7794 75.7403C40.7913 75.7364 40.803 75.7317 40.8144 75.7262C40.8721 75.7085 40.9246 75.6769 40.9673 75.6343C41.01 75.5916 41.0417 75.5392 41.0595 75.4815L48.6931 59.1501L42.5703 45.6347Z" fill="#DEF1F3"/>
</g>
<defs>
<linearGradient id="paint0_linear" x1="35.3022" y1="51.0186" x2="78.8263" y2="51.0186" gradientUnits="userSpaceOnUse">
<stop offset="0.23" stop-color="#277F7A"/>
<stop offset="0.75" stop-color="#3BADA7"/>
</linearGradient>
<clipPath id="clip0">
<rect width="96" height="96" fill="white"/>
</clipPath>
</defs>
</svg>

<svg xmlns="http://www.w3.org/2000/svg" width="96" height="96" fill="none"><g clip-path="url(#a)"><path fill="#17252A" d="M48 96c26.51 0 48-21.49 48-48S74.51 0 48 0 0 21.49 0 48s21.49 48 48 48"/><path fill="url(#b)" d="M58.298 75.562a.41.41 0 1 1-.817 0L35.302 26.038h7.594a8.19 8.19 0 0 1 7.513 4.905l7.513 17.108 6.41-13.516a8.2 8.2 0 0 1 7.39-4.702h7.103z"/><path fill="#DEF1F3" d="m42.57 45.635-1.43 3.349-.438-1.022-.043.042-7.807-17.107A8.55 8.55 0 0 0 25.178 26h-8.004l23.069 49.482a.42.42 0 0 0 .571.244.37.37 0 0 0 .245-.245l7.634-16.33z"/></g><defs><linearGradient id="b" x1="35.302" x2="78.826" y1="51.019" y2="51.019" gradientUnits="userSpaceOnUse"><stop offset=".23" stop-color="#277F7A"/><stop offset=".75" stop-color="#3BADA7"/></linearGradient><clipPath id="a"><path fill="#fff" d="M0 0h96v96H0z"/></clipPath></defs></svg>
